X: 21397
T: Kerryman's Fling
R: strathspey
M: 4/4
K: Dmajor
|:(3dcB|A2 A>F A>B d>e|f>d e>f e<d B>d|A2 A>F A>B d>e|f>d e<f d2:|
d>e|f<a a>f g<b b>f|af df e>d B>A|f<a a>f gb b>f|a>f (3.e.f.e d2 d>e|
f<a a>f gb bf|af df ed Bd|A2 A>F AB DE|f>d (3.e.f.e d2|

